; generated by PrusaSlicer 2.1.0+linux64 on 2019-12-03 at 17:12:05 UTC

; 

; external perimeters extrusion width = 0.45mm
; perimeters extrusion width = 0.45mm
; infill extrusion width = 0.45mm
; solid infill extrusion width = 0.45mm
; top infill extrusion width = 0.40mm
; first layer extrusion width = 0.42mm

M73 P0 R18
M73 Q0 S18
M201 X1000 Y1000 Z1000 E5000 ; sets maximum accelerations, mm/sec^2
M203 X200 Y200 Z12 E120 ; sets maximum feedrates, mm/sec
M204 P1250 R1250 T1250 ; sets acceleration (P, T) and retract acceleration (R), mm/sec^2
M205 X8.00 Y8.00 Z0.40 E1.50 ; sets the jerk limits, mm/sec
M205 S0 T0 ; sets the minimum extruding and travel feed rate, mm/sec
M107
M862.3 P "MK3S" ; printer model check
M862.1 P0.4 ; nozzle diameter check
M115 U3.8.1 ; tell printer latest fw version
G90 ; use absolute coordinates
M83 ; extruder relative mode
M104 S240 ; set extruder temp
M140 S85 ; set bed temp
M190 S85 ; wait for bed temp
M109 S240 ; wait for extruder temp
G28 W ; home all without mesh bed level
G80 ; mesh bed leveling
G1 Y-3.0 F1000.0 ; go outside print area
G92 E0.0
G1 X60.0 E9.0 F1000.0 ; intro line
M73 Q0 S18
M73 P0 R18
G1 X100.0 E12.5 F1000.0 ; intro line
G92 E0.0
M221 S95
G21 ; set units to millimeters
G90 ; use absolute coordinates
M83 ; use relative distances for extrusion
M900 K45 ; Filament gcode
;BEFORE_LAYER_CHANGE
G92 E0.0
;0.2


G1 E-1.40000 F2100.00000
G1 Z0.200 F10800.000
;AFTER_LAYER_CHANGE
;0.2
G1 Z0.400
G1 X112.481 Y87.481
G1 Z0.200
G1 E1.40000 F2100.00000
M204 S1000
G1 F1200
G1 X112.843 Y86.879 E0.02202
G1 X113.354 Y86.398 E0.02202
G1 X113.977 Y86.074 E0.02202
G1 X114.664 Y85.930 E0.02202
G1 X135.164 Y85.924 E0.64275
G1 X135.840 Y86.016 E0.02140
G1 X136.469 Y86.283 E0.02140
G1 X137.004 Y86.706 E0.02140
G1 X137.409 Y87.256 E0.02140
G1 X137.612 Y87.736 E0.01635
G1 X137.714 Y88.251 E0.01647
G1 X137.719 Y90.585 E0.07317
G1 X132.611 Y121.927 E0.99568
G1 X132.439 Y122.519 E0.01931
G1 X132.090 Y123.105 E0.02140
G1 X131.598 Y123.578 E0.02140
G1 X130.999 Y123.905 E0.02140
G1 X130.335 Y124.063 E0.02140
G1 X119.876 Y124.075 E0.32791
G1 X118.911 Y123.869 E0.03095
G1 X118.362 Y123.549 E0.01992
G1 X117.912 Y123.106 E0.01980
G1 X117.581 Y122.564 E0.01992
G1 X117.394 Y121.957 E0.01992
G1 X112.300 Y90.758 E0.99117
G1 X112.278 Y88.348 E0.07557
G1 X112.467 Y87.540 E0.02602
G1 X112.831 Y87.625 F10800.000
G1 F1200
G1 X113.145 Y87.106 E0.01902
G1 X113.585 Y86.697 E0.01885
G1 X114.120 Y86.423 E0.01885
G1 X114.710 Y86.305 E0.01885
G1 X135.164 Y86.301 E0.64131
G1 X135.759 Y86.385 E0.01885
G1 X136.306 Y86.625 E0.01873
G1 X136.770 Y87.008 E0.01885
G1 X137.111 Y87.498 E0.01873
G1 X137.342 Y88.327 E0.02698
G1 X137.341 Y90.581 E0.07067
G1 X132.239 Y121.866 E0.99388
G1 X132.088 Y122.380 E0.01680
G1 X131.785 Y122.882 E0.01839
G1 X131.359 Y123.286 E0.01839
G1 X130.841 Y123.562 E0.01839
G1 X130.269 Y123.690 E0.01839
G1 X119.887 Y123.698 E0.32551
G1 X119.049 Y123.518 E0.02687
G1 X118.582 Y123.242 E0.01703
G1 X118.199 Y122.862 E0.01692
G1 X117.920 Y122.399 E0.01692
G1 X117.764 Y121.883 E0.01692
G1 X112.674 Y90.708 E0.99042
G1 X112.654 Y88.377 E0.07309
G1 X112.817 Y87.683 E0.02233
G1 F8640
G1 X113.145 Y87.106 E-0.15330
G1 X113.585 Y86.697 E-0.13881
G1 X114.120 Y86.423 E-0.13881
G1 X114.710 Y86.305 E-0.13881
G1 X118.003 Y86.305 E-0.76029
G1 E-0.07000 F2100.00000
G1 Z0.400 F10800.000
G1 X119.333 Y101.873
G1 Z0.200
G1 E1.40000 F2100.00000
G1 F1200
G1 X122.285 Y101.873 E0.09256
G1 X122.285 Y108.127 E0.19609
G1 X119.333 Y108.127 E0.09256
G1 X119.333 Y101.933 E0.19421
G1 X119.710 Y102.250 F10800.000
G1 F1200
G1 X121.908 Y102.250 E0.06892
G1 X121.908 Y107.750 E0.17245
G1 X119.710 Y107.750 E0.06892
G1 X119.710 Y102.310 E0.17057
G1 X119.659 Y101.853 F10800.000
G1 F8640
G1 X121.908 Y102.250 E-0.50771
G1 X121.908 Y105.811 E-0.82229
G1 E-0.07000 F2100.00000
G1 Z0.400 F10800.000
G1 X127.715 Y101.873
G1 Z0.200
G1 E1.40000 F2100.00000
G1 F1200
G1 X130.667 Y101.873 E0.09256
G1 X130.667 Y108.127 E0.19609
G1 X127.715 Y108.127 E0.09256
G1 X127.715 Y101.933 E0.19421
G1 X128.092 Y102.250 F10800.000
G1 F1200
G1 X130.290 Y102.250 E0.06892
G1 X130.290 Y107.750 E0.17245
G1 X128.092 Y107.750 E0.06892
G1 X128.092 Y102.310 E0.17057
G1 X128.041 Y101.853 F10800.000
G1 F8640
G1 X130.290 Y102.250 E-0.50771
G1 X130.290 Y105.811 E-0.82229
G1 E-0.07000 F2100.00000
G1 Z0.400 F10800.000
G1 X129.493 Y89.808
G1 Z0.200
G1 E1.40000 F2100.00000
G1 F1200
G1 X129.493 Y98.765 E0.28084
G1 X130.777 Y100.150 E0.05922
G1 X130.777 Y109.824 E0.30330
G1 X129.493 Y111.013 E0.05488
G1 X129.493 Y120.923 E0.31071
G1 X120.507 Y120.923 E0.28174
G1 X120.507 Y111.013 E0.31071
G1 X119.223 Y109.824 E0.05488
G1 X119.223 Y100.150 E0.30330
G1 X120.507 Y98.765 E0.05922
G1 X120.507 Y89.808 E0.28084
G1 X115.427 Y89.808 E0.15928
G1 X115.427 Y89.077 E0.02292
G1 X134.573 Y89.077 E0.60030
G1 X134.573 Y89.808 E0.02292
G1 X129.553 Y89.808 E0.15740
G1 X129.870 Y90.185 F10800.000
G1 F1200
G1 X129.870 Y98.617 E0.26438
G1 X131.154 Y100.002 E0.05922
G1 X131.154 Y109.988 E0.31310
G1 X129.870 Y111.178 E0.05488
G1 X129.870 Y121.300 E0.31737
G1 X120.130 Y121.300 E0.30539
G1 X120.130 Y111.178 E0.31737
G1 X118.846 Y109.988 E0.05488
G1 X118.846 Y100.002 E0.31310
G1 X120.130 Y98.617 E0.05922
G1 X120.130 Y90.185 E0.26438
G1 X115.050 Y90.185 E0.15928
G1 X115.050 Y88.700 E0.04656
G1 X134.950 Y88.700 E0.62395
G1 X134.950 Y90.185 E0.04656
G1 X129.930 Y90.185 E0.15740
G1 X129.472 Y90.223 F10800.000
G1 X129.380 Y90.146
G1 F1200
G1 X128.593 Y89.360 E0.03511
G1 X128.056 Y89.360 E0.01695
G1 X129.210 Y90.514 E0.05150
G1 X129.210 Y91.050 E0.01695
G1 X127.520 Y89.360 E0.07547
G1 X126.983 Y89.360 E0.01695
G1 X129.210 Y91.587 E0.09944
G1 X129.210 Y92.124 E0.01695
G1 X126.446 Y89.360 E0.12341
G1 X125.909 Y89.360 E0.01695
G1 X129.210 Y92.661 E0.14737
G1 X129.210 Y93.198 E0.01695
G1 X125.372 Y89.360 E0.17134
G1 X124.835 Y89.360 E0.01695
G1 X129.210 Y93.735 E0.19531
G1 X129.210 Y94.272 E0.01695
G1 X124.298 Y89.360 E0.21928
G1 X123.761 Y89.360 E0.01695
G1 X129.210 Y94.809 E0.24324
G1 X129.210 Y95.346 E0.01695
G1 X123.224 Y89.360 E0.26721
G1 X122.688 Y89.360 E0.01695
G1 X129.210 Y95.882 E0.29118
G1 X129.210 Y96.419 E0.01695
G1 X122.151 Y89.360 E0.31514
G1 X121.614 Y89.360 E0.01695
G1 X129.210 Y96.956 E0.33911
G1 X129.210 Y97.493 E0.01695
G1 X121.077 Y89.360 E0.36308
G1 X120.978 Y89.360 E0.00311
G1 X120.978 Y89.798 E0.01384
G1 X129.210 Y98.030 E0.36748
G1 X129.210 Y98.567 E0.01695
G1 X120.790 Y90.147 E0.37590
G1 X120.790 Y90.683 E0.01695
G1 X130.494 Y100.387 E0.43321
G1 X130.494 Y100.924 E0.01695
G1 X120.790 Y91.220 E0.43321
G1 X120.790 Y91.757 E0.01695
G1 X130.494 Y101.461 E0.43321
G1 X130.494 Y101.590 E0.00407
G1 X130.086 Y101.590 E0.01288
G1 X120.790 Y92.294 E0.41499
G1 X120.790 Y92.831 E0.01695
G1 X129.549 Y101.590 E0.39103
G1 X129.012 Y101.590 E0.01695
G1 X120.790 Y93.368 E0.36706
G1 X120.790 Y93.905 E0.01695
G1 X128.475 Y101.590 E0.34309
G1 X127.938 Y101.590 E0.01695
G1 X120.790 Y94.442 E0.31912
G1 X120.790 Y94.978 E0.01695
G1 X127.432 Y101.621 E0.29652
G1 X127.432 Y102.158 E0.01695
G1 X120.790 Y95.515 E0.29652
G1 X120.790 Y96.052 E0.01695
G1 X127.432 Y102.694 E0.29652
G1 X127.432 Y103.231 E0.01695
G1 X120.790 Y96.589 E0.29652
G1 X120.790 Y97.126 E0.01695
G1 X127.432 Y103.768 E0.29652
G1 X127.432 Y104.305 E0.01695
G1 X120.790 Y97.663 E0.29652
G1 X120.790 Y98.200 E0.01695
G1 X127.432 Y104.842 E0.29652
G1 X127.432 Y105.379 E0.01695
G1 X120.790 Y98.737 E0.29652
G1 X120.790 Y98.876 E0.00439
G1 X120.599 Y99.082 E0.00888
G1 X127.432 Y105.916 E0.30506
G1 X127.432 Y106.453 E0.01695
G1 X120.340 Y99.361 E0.31659
G1 X120.082 Y99.640 E0.01199
G1 X122.033 Y101.590 E0.08708
G1 X121.496 Y101.590 E0.01695
G1 X119.824 Y99.918 E0.07464
G1 X119.566 Y100.197 E0.01199
G1 X120.959 Y101.590 E0.06220
G1 X120.422 Y101.590 E0.01695
G1 X119.506 Y100.674 E0.04089
G1 X119.506 Y101.211 E0.01695
G1 X120.055 Y101.760 E0.02450
G1 F8640
G1 X119.506 Y101.211 E-0.17921
G1 X119.506 Y100.674 E-0.12397
G1 X120.422 Y101.590 E-0.29912
G1 X120.959 Y101.590 E-0.12397
G1 X119.566 Y100.197 E-0.45498
G1 X119.824 Y99.918 E-0.08772
G1 X120.011 Y100.105 E-0.06103
G1 E-0.07000 F2100.00000
G1 Z0.400 F10800.000
G1 X127.602 Y107.159
G1 Z0.200
G1 E1.40000 F2100.00000
G1 F1200
G1 X122.568 Y102.125 E0.22472
G1 X122.568 Y102.662 E0.01695
G1 X127.432 Y107.526 E0.21715
G1 X127.432 Y108.063 E0.01695
G1 X122.568 Y103.199 E0.21715
G1 X122.568 Y103.736 E0.01695
G1 X129.476 Y110.644 E0.30838
G1 X129.754 Y110.386 E0.01199
G1 X127.779 Y108.410 E0.08820
G1 X128.316 Y108.410 E0.01695
G1 X130.033 Y110.127 E0.07667
G1 X130.312 Y109.869 E0.01199
G1 X128.852 Y108.410 E0.06514
G1 X129.389 Y108.410 E0.01695
G1 X130.494 Y109.514 E0.04931
G1 X130.494 Y108.978 E0.01695
G1 X129.926 Y108.410 E0.02534
G1 X130.463 Y108.410 E0.01695
G1 X130.664 Y108.610 E0.00895
G1 F8640
G1 X130.463 Y108.410 E-0.06547
G1 X129.926 Y108.410 E-0.12397
G1 X130.494 Y108.978 E-0.18537
G1 X130.494 Y109.514 E-0.12397
G1 X129.389 Y108.410 E-0.36069
G1 X128.852 Y108.410 E-0.12397
G1 X129.914 Y109.471 E-0.34657
G1 E-0.07000 F2100.00000
G1 Z0.400 F10800.000
G1 X129.380 Y111.085
G1 Z0.200
G1 E1.40000 F2100.00000
G1 F1200
G1 X122.568 Y104.273 E0.30410
G1 X122.568 Y104.810 E0.01695
G1 X129.210 Y111.452 E0.29652
G1 X129.210 Y111.989 E0.01695
G1 X122.568 Y105.347 E0.29652
G1 X122.568 Y105.883 E0.01695
G1 X129.210 Y112.526 E0.29652
G1 X129.210 Y113.063 E0.01695
G1 X122.568 Y106.420 E0.29652
G1 X122.568 Y106.957 E0.01695
G1 X129.210 Y113.599 E0.29652
G1 X129.210 Y114.136 E0.01695
G1 X122.568 Y107.494 E0.29652
G1 X122.568 Y108.031 E0.01695
G1 X129.210 Y114.673 E0.29652
G1 X129.210 Y115.210 E0.01695
G1 X122.410 Y108.410 E0.30357
G1 X121.873 Y108.410 E0.01695
G1 X129.210 Y115.747 E0.32754
G1 X129.210 Y116.284 E0.01695
G1 X121.336 Y108.410 E0.35151
G1 X120.799 Y108.410 E0.01695
G1 X129.210 Y116.821 E0.37548
G1 X129.210 Y117.358 E0.01695
G1 X120.262 Y108.410 E0.39944
G1 X119.725 Y108.410 E0.01695
G1 X129.210 Y117.895 E0.42341
G1 X129.210 Y118.431 E0.01695
G1 X119.506 Y108.727 E0.43321
M73 Q5 S17
G1 X119.506 Y109.264 E0.01695
G1 X129.210 Y118.968 E0.43321
M73 P5 R17
G1 X129.210 Y119.505 E0.01695
G1 X120.790 Y111.085 E0.37590
G1 X120.790 Y111.622 E0.01695
G1 X129.210 Y120.042 E0.37590
G1 X129.210 Y120.579 E0.01695
G1 X120.790 Y112.159 E0.37590
G1 X120.790 Y112.696 E0.01695
G1 X128.734 Y120.640 E0.35466
G1 X128.198 Y120.640 E0.01695
G1 X120.790 Y113.232 E0.33069
G1 X120.790 Y113.769 E0.01695
G1 X127.661 Y120.640 E0.30673
G1 X127.124 Y120.640 E0.01695
G1 X120.790 Y114.306 E0.28276
G1 X120.790 Y114.843 E0.01695
G1 X126.587 Y120.640 E0.25879
G1 X126.050 Y120.640 E0.01695
G1 X120.790 Y115.380 E0.23483
G1 X120.790 Y115.917 E0.01695
G1 X125.513 Y120.640 E0.21086
G1 X124.976 Y120.640 E0.01695
G1 X120.790 Y116.454 E0.18689
G1 X120.790 Y116.991 E0.01695
G1 X124.439 Y120.640 E0.16292
G1 X123.903 Y120.640 E0.01695
G1 X120.790 Y117.527 E0.13896
G1 X120.790 Y118.064 E0.01695
G1 X123.366 Y120.640 E0.11499
G1 X122.829 Y120.640 E0.01695
G1 X120.790 Y118.601 E0.09102
G1 X120.790 Y119.138 E0.01695
G1 X122.292 Y120.640 E0.06705
G1 X121.755 Y120.640 E0.01695
G1 X120.790 Y119.675 E0.04309
G1 X120.790 Y120.212 E0.01695
G1 X121.388 Y120.810 E0.02669
G1 F8640
G1 X120.790 Y120.212 E-0.19526
G1 X120.790 Y119.675 E-0.12397
G1 X121.755 Y120.640 E-0.31517
G1 X122.292 Y120.640 E-0.12397
G1 X120.790 Y119.138 E-0.49048
G1 X120.790 Y118.787 E-0.08115
G1 E-0.07000 F2100.00000
G1 Z0.400 F10800.000
G1 X120.696 Y89.442
G1 Z0.200
G1 E1.40000 F2100.00000
G1 F1200
G1 X115.616 Y89.442 E0.14943
G1 F8640
G1 X120.696 Y89.442 E-1.17298
G1 E-0.22702 F2100.00000
G1 Z0.400 F10800.000
G1 X129.304 Y89.442
G1 Z0.200
G1 E1.40000 F2100.00000
G1 F1200
G1 X134.384 Y89.442 E0.14943
;BEFORE_LAYER_CHANGE
G92 E0.0
;0.35


G1 F8640
G1 X129.304 Y89.442 E-1.17298
G1 E-0.22702 F2100.00000
G1 Z0.400 F10800.000
;AFTER_LAYER_CHANGE
;0.35
M104 S250 ; set temperature
M140 S90 ; set bed temperature
G1 X135.840 Y86.016
G1 Z0.350
G1 E1.40000 F2100.00000
G1 F3000
G1 X136.469 Y86.283 E0.01651
G1 X137.004 Y86.706 E0.01651
G1 X137.409 Y87.256 E0.01651
G1 X137.612 Y87.736 E0.01261
G1 X137.714 Y88.251 E0.01271
G1 X137.719 Y90.585 E0.05644
G1 X132.611 Y121.927 E0.76801
G1 X132.439 Y122.519 E0.01489
G1 X132.090 Y123.105 E0.01651
G1 X131.598 Y123.578 E0.01651
G1 X130.999 Y123.905 E0.01651
G1 X130.335 Y124.063 E0.01651
G1 X119.876 Y124.075 E0.25293
G1 X118.911 Y123.869 E0.02387
G1 X118.362 Y123.549 E0.01537
G1 X117.912 Y123.106 E0.01527
G1 X117.581 Y122.564 E0.01537
G1 X117.394 Y121.957 E0.01537
G1 X112.300 Y90.758 E0.76453
G1 X112.278 Y88.348 E0.05829
G1 X112.481 Y87.481 E0.02152
G1 X112.843 Y86.879 E0.01698
G1 X113.354 Y86.398 E0.01698
G1 X113.977 Y86.074 E0.01698
G1 X114.664 Y85.930 E0.01698
G1 X135.164 Y85.924 E0.49578
G1 X135.781 Y86.008 E0.01506
G1 F8640
G1 X136.469 Y86.283 E-0.17101
G1 X137.004 Y86.706 E-0.15761
G1 X137.409 Y87.256 E-0.15761
G1 X137.612 Y87.736 E-0.12040
G1 X137.714 Y88.251 E-0.12131
G1 X137.719 Y90.585 E-0.53881
G1 X137.675 Y90.855 E-0.06325
G1 E-0.07000 F2100.00000
G1 Z0.550 F10800.000
G1 X121.923 Y102.235
G1 Z0.350
G1 E1.40000 F2100.00000
M204 S800
G1 F1500
G1 X121.923 Y107.765 E0.14409
G1 X119.695 Y107.765 E0.05805
G1 X119.695 Y102.235 E0.14409
G1 X121.863 Y102.235 E0.05649
M204 S1000
G1 X122.292 Y102.081 F10800.000
G1 F8640
G1 X121.923 Y107.765 E-1.27697
G1 X121.693 Y107.765 E-0.05303
G1 E-0.07000 F2100.00000
G1 Z0.550 F10800.000
G1 X128.077 Y102.235
G1 Z0.350
G1 E1.40000 F2100.00000
M204 S800
G1 F1500
G1 X130.305 Y102.235 E0.05805
G1 X130.305 Y107.765 E0.14409
G1 X128.077 Y107.765 E0.05805
G1 X128.077 Y102.295 E0.14253
M204 S1000
G1 X128.026 Y101.838 F10800.000
G1 F8640
G1 X130.305 Y102.235 E-0.51464
G1 X130.305 Y105.766 E-0.81536
G1 E-0.07000 F2100.00000
G1 Z0.550 F10800.000
G1 X129.437 Y89.752
G1 Z0.350
G1 E1.40000 F2100.00000
M204 S800
G1 F2700
G1 X129.437 Y98.787 E0.23540
G1 X130.721 Y100.172 E0.04921
G1 X130.721 Y101.817 E0.04287
G1 X127.659 Y101.817 E0.07978
G1 X127.659 Y108.183 E0.16586
G1 X130.721 Y108.183 E0.07978
G1 X130.721 Y109.799 E0.04212
G1 X129.437 Y110.989 E0.04560
G1 X129.437 Y120.867 E0.25738
G1 X120.563 Y120.867 E0.23123
G1 X120.563 Y110.989 E0.25738
G1 X119.279 Y109.799 E0.04560
G1 X119.279 Y108.183 E0.04212
G1 X122.341 Y108.183 E0.07978
G1 X122.341 Y101.817 E0.16586
G1 X119.279 Y101.817 E0.07978
G1 X119.279 Y100.172 E0.04287
G1 X120.563 Y98.787 E0.04921
G1 X120.563 Y89.752 E0.23540
G1 X115.483 Y89.752 E0.13236
G1 X115.483 Y89.133 E0.01614
G1 X134.517 Y89.133 E0.49596
G1 X134.517 Y89.752 E0.01614
G1 X129.497 Y89.752 E0.13080
M204 S1000
G1 X129.855 Y90.170 F10800.000
M204 S800
G1 F1500
G1 X129.855 Y98.623 E0.22025
G1 X131.139 Y100.008 E0.04921
G1 X131.139 Y109.982 E0.25987
G1 X129.855 Y111.171 E0.04560
G1 X129.855 Y121.285 E0.26352
G1 X120.145 Y121.285 E0.25300
G1 X120.145 Y111.171 E0.26352
G1 X118.861 Y109.982 E0.04560
G1 X118.861 Y100.008 E0.25987
G1 X120.145 Y98.623 E0.04921
G1 X120.145 Y90.170 E0.22025
G1 X115.065 Y90.170 E0.13236
G1 X115.065 Y88.715 E0.03791
G1 X134.935 Y88.715 E0.51773
G1 X134.935 Y90.170 E0.03791
G1 X129.915 Y90.170 E0.13080
M204 S1000
G1 X129.457 Y90.207 F10800.000
G1 F8640
G1 X129.874 Y95.930 E-1.33000
G1 E-0.07000 F2100.00000
G1 Z0.550 F10800.000
G1 X129.228 Y89.442
G1 Z0.350
G1 E1.40000 F2100.00000
G1 F2400
G1 X134.308 Y89.442 E0.06386
G1 F8640
G1 X129.228 Y89.442 E-1.17298
G1 E-0.22702 F2100.00000
G1 Z0.550 F10800.000
G1 X130.203 Y101.692
G1 Z0.350
G1 E1.40000 F2100.00000
M204 S1250
G1 F4800
G1 X130.408 Y101.487 E0.00762
G1 X130.408 Y100.890 E0.01570
G1 X129.794 Y101.504 E0.02283
G1 X129.197 Y101.504 E0.01570
G1 X130.407 Y100.294 E0.04502
G1 X130.120 Y99.984 E0.01111
G1 X128.601 Y101.504 E0.05654
G1 X128.004 Y101.504 E0.01570
G1 X129.833 Y99.675 E0.06807
G1 X129.546 Y99.365 E0.01111
G1 X122.654 Y106.257 E0.25647
G1 X122.654 Y106.853 E0.01570
G1 X127.346 Y102.162 E0.17460
G1 X127.346 Y102.759 E0.01570
G1 X122.654 Y107.450 E0.17460
G1 X122.654 Y108.047 E0.01570
G1 X127.346 Y103.355 E0.17460
G1 X127.346 Y103.952 E0.01570
G1 X120.653 Y110.645 E0.24908
G1 X120.876 Y110.852 E0.00802
G1 X120.876 Y111.018 E0.00438
