; generated by PrusaSlicer 2.1.0+linux64 on 2019-12-03 at 17:12:51 UTC

; 

; external perimeters extrusion width = 0.45mm
; perimeters extrusion width = 0.45mm
; infill extrusion width = 0.45mm
; solid infill extrusion width = 0.45mm
; top infill extrusion width = 0.40mm
; first layer extrusion width = 0.42mm

M73 P0 R149
M73 Q0 S151
M201 X1000 Y1000 Z1000 E5000 ; sets maximum accelerations, mm/sec^2
M203 X200 Y200 Z12 E120 ; sets maximum feedrates, mm/sec
M204 P1250 R1250 T1250 ; sets acceleration (P, T) and retract acceleration (R), mm/sec^2
M205 X8.00 Y8.00 Z0.40 E1.50 ; sets the jerk limits, mm/sec
M205 S0 T0 ; sets the minimum extruding and travel feed rate, mm/sec
M107
M862.3 P "MK3S" ; printer model check
M862.1 P0.4 ; nozzle diameter check
M115 U3.8.1 ; tell printer latest fw version
G90 ; use absolute coordinates
M83 ; extruder relative mode
M104 S240 ; set extruder temp
M140 S85 ; set bed temp
M190 S85 ; wait for bed temp
M109 S240 ; wait for extruder temp
G28 W ; home all without mesh bed level
G80 ; mesh bed leveling
G1 Y-3.0 F1000.0 ; go outside print area
G92 E0.0
G1 X60.0 E9.0 F1000.0 ; intro line
M73 Q0 S151
M73 P0 R149
G1 X100.0 E12.5 F1000.0 ; intro line
G92 E0.0
M221 S95
G21 ; set units to millimeters
G90 ; use absolute coordinates
M83 ; use relative distances for extrusion
M900 K45 ; Filament gcode
;BEFORE_LAYER_CHANGE
G92 E0.0
;0.2


G1 E-1.40000 F2100.00000
G1 Z0.200 F10800.000
;AFTER_LAYER_CHANGE
;0.2
G1 Z0.400
G1 X73.303 Y48.722
G1 Z0.200
G1 E1.40000 F2100.00000
M204 S1000
G1 F1200
G1 X73.676 Y48.072 E0.02349
G1 X74.017 Y47.742 E0.01487
G1 X74.424 Y47.492 E0.01498
G1 X74.872 Y47.337 E0.01487
G1 X75.343 Y47.282 E0.01487
G1 X174.644 Y47.281 E3.11350
G1 X175.467 Y47.444 E0.02631
G1 X176.169 Y47.904 E0.02631
G1 X176.646 Y48.594 E0.02631
G1 X176.828 Y49.413 E0.02631
G1 X176.828 Y129.481 E2.51047
G1 X171.717 Y160.901 E0.99810
G1 X171.547 Y161.447 E0.01794
G1 X171.242 Y161.931 E0.01794
G1 X170.897 Y162.262 E0.01498
G1 X170.490 Y162.511 E0.01498
G1 X170.041 Y162.665 E0.01487
G1 X169.566 Y162.719 E0.01498
G1 X80.429 Y162.719 E2.79483
G1 X79.692 Y162.587 E0.02349
G1 X79.042 Y162.214 E0.02349
G1 X78.548 Y161.631 E0.02394
G1 X78.286 Y160.918 E0.02383
G1 X73.174 Y129.517 E0.99751
G1 X73.172 Y49.455 E2.51027
G1 X73.293 Y48.781 E0.02150
G1 F8640
G1 X73.676 Y48.072 E-0.18609
G1 X74.017 Y47.742 E-0.10949
G1 X74.424 Y47.492 E-0.11033
G1 X74.872 Y47.337 E-0.10949
G1 X75.343 Y47.282 E-0.10949
G1 X78.397 Y47.282 E-0.70509
G1 E-0.07000 F2100.00000
G1 Z0.400 F10800.000
G1 X106.173 Y101.873
G1 Z0.200
G1 E1.40000 F2100.00000
G1 F1200
G1 X109.125 Y101.873 E0.09256
G1 X109.125 Y108.127 E0.19609
G1 X106.173 Y108.127 E0.09256
G1 X106.173 Y101.933 E0.19421
G1 X106.550 Y102.250 F10800.000
G1 F1200
G1 X108.748 Y102.250 E0.06892
G1 X108.748 Y107.750 E0.17245
G1 X106.550 Y107.750 E0.06892
G1 X106.550 Y102.310 E0.17057
G1 X106.499 Y101.853 F10800.000
G1 F8640
G1 X108.748 Y102.250 E-0.50771
G1 X108.748 Y105.811 E-0.82229
G1 E-0.07000 F2100.00000
G1 Z0.400 F10800.000
G1 X114.555 Y101.873
G1 Z0.200
G1 E1.40000 F2100.00000
G1 F1200
G1 X117.507 Y101.873 E0.09256
G1 X117.507 Y108.127 E0.19609
G1 X114.555 Y108.127 E0.09256
G1 X114.555 Y101.933 E0.19421
G1 X114.932 Y102.250 F10800.000
G1 F1200
G1 X117.130 Y102.250 E0.06892
G1 X117.130 Y107.750 E0.17245
G1 X114.932 Y107.750 E0.06892
G1 X114.932 Y102.310 E0.17057
G1 X114.881 Y101.853 F10800.000
G1 F8640
G1 X117.130 Y102.250 E-0.50771
G1 X117.130 Y105.811 E-0.82229
G1 E-0.07000 F2100.00000
G1 Z0.400 F10800.000
G1 X116.333 Y89.808
G1 Z0.200
G1 E1.40000 F2100.00000
G1 F1200
G1 X116.333 Y98.765 E0.28084
G1 X117.617 Y100.150 E0.05922
G1 X117.617 Y109.824 E0.30330
G1 X116.333 Y111.013 E0.05488
G1 X116.333 Y120.923 E0.31071
G1 X107.347 Y120.923 E0.28174
G1 X107.347 Y111.013 E0.31071
G1 X106.063 Y109.824 E0.05488
G1 X106.063 Y100.150 E0.30330
G1 X107.347 Y98.765 E0.05922
G1 X107.347 Y89.808 E0.28084
G1 X102.267 Y89.808 E0.15928
G1 X102.267 Y89.077 E0.02292
G1 X121.413 Y89.077 E0.60030
G1 X121.413 Y89.808 E0.02292
G1 X116.393 Y89.808 E0.15740
G1 X116.710 Y90.185 F10800.000
G1 F1200
G1 X116.710 Y98.617 E0.26438
G1 X117.994 Y100.002 E0.05922
G1 X117.994 Y109.988 E0.31310
G1 X116.710 Y111.178 E0.05488
G1 X116.710 Y121.300 E0.31737
G1 X106.970 Y121.300 E0.30539
G1 X106.970 Y111.178 E0.31737
G1 X105.686 Y109.988 E0.05488
G1 X105.686 Y100.002 E0.31310
G1 X106.970 Y98.617 E0.05922
G1 X106.970 Y90.185 E0.26438
G1 X101.890 Y90.185 E0.15928
G1 X101.890 Y88.700 E0.04656
G1 X121.790 Y88.700 E0.62395
G1 X121.790 Y90.185 E0.04656
G1 X116.770 Y90.185 E0.15740
G1 X116.312 Y90.223 F10800.000
G1 X116.220 Y90.146
G1 F1200
G1 X115.433 Y89.360 E0.03511
G1 X114.896 Y89.360 E0.01695
G1 X116.050 Y90.514 E0.05150
G1 X116.050 Y91.050 E0.01695
G1 X114.360 Y89.360 E0.07547
G1 X113.823 Y89.360 E0.01695
G1 X116.050 Y91.587 E0.09944
G1 X116.050 Y92.124 E0.01695
G1 X113.286 Y89.360 E0.12341
G1 X112.749 Y89.360 E0.01695
G1 X116.050 Y92.661 E0.14737
G1 X116.050 Y93.198 E0.01695
G1 X112.212 Y89.360 E0.17134
G1 X111.675 Y89.360 E0.01695
G1 X116.050 Y93.735 E0.19531
G1 X116.050 Y94.272 E0.01695
G1 X111.138 Y89.360 E0.21928
G1 X110.601 Y89.360 E0.01695
G1 X116.050 Y94.809 E0.24324
G1 X116.050 Y95.346 E0.01695
G1 X110.064 Y89.360 E0.26721
G1 X109.528 Y89.360 E0.01695
G1 X116.050 Y95.882 E0.29118
G1 X116.050 Y96.419 E0.01695
G1 X108.991 Y89.360 E0.31514
G1 X108.454 Y89.360 E0.01695
G1 X116.050 Y96.956 E0.33911
G1 X116.050 Y97.493 E0.01695
G1 X107.917 Y89.360 E0.36308
G1 X107.818 Y89.360 E0.00311
G1 X107.818 Y89.798 E0.01384
G1 X116.050 Y98.030 E0.36748
G1 X116.050 Y98.567 E0.01695
G1 X107.630 Y90.147 E0.37590
G1 X107.630 Y90.683 E0.01695
G1 X117.334 Y100.387 E0.43321
G1 X117.334 Y100.924 E0.01695
G1 X107.630 Y91.220 E0.43321
G1 X107.630 Y91.757 E0.01695
G1 X117.334 Y101.461 E0.43321
G1 X117.334 Y101.590 E0.00407
G1 X116.926 Y101.590 E0.01288
G1 X107.630 Y92.294 E0.41499
G1 X107.630 Y92.831 E0.01695
G1 X116.389 Y101.590 E0.39103
G1 X115.852 Y101.590 E0.01695
G1 X107.630 Y93.368 E0.36706
G1 X107.630 Y93.905 E0.01695
G1 X115.315 Y101.590 E0.34309
G1 X114.778 Y101.590 E0.01695
G1 X107.630 Y94.442 E0.31912
G1 X107.630 Y94.978 E0.01695
G1 X114.272 Y101.621 E0.29652
G1 X114.272 Y102.158 E0.01695
G1 X107.630 Y95.515 E0.29652
G1 X107.630 Y96.052 E0.01695
G1 X114.272 Y102.694 E0.29652
G1 X114.272 Y103.231 E0.01695
G1 X107.630 Y96.589 E0.29652
G1 X107.630 Y97.126 E0.01695
G1 X114.272 Y103.768 E0.29652
G1 X114.272 Y104.305 E0.01695
G1 X107.630 Y97.663 E0.29652
G1 X107.630 Y98.200 E0.01695
G1 X114.272 Y104.842 E0.29652
G1 X114.272 Y105.379 E0.01695
G1 X107.630 Y98.737 E0.29652
G1 X107.630 Y98.876 E0.00439
G1 X107.439 Y99.082 E0.00888
G1 X114.272 Y105.916 E0.30506
G1 X114.272 Y106.453 E0.01695
G1 X107.180 Y99.361 E0.31659
G1 X106.922 Y99.640 E0.01199
G1 X108.873 Y101.590 E0.08708
G1 X108.336 Y101.590 E0.01695
G1 X106.664 Y99.918 E0.07464
G1 X106.406 Y100.197 E0.01199
G1 X107.799 Y101.590 E0.06220
G1 X107.262 Y101.590 E0.01695
G1 X106.346 Y100.674 E0.04089
G1 X106.346 Y101.211 E0.01695
G1 X106.895 Y101.760 E0.02450
G1 F8640
G1 X106.346 Y101.211 E-0.17921
G1 X106.346 Y100.674 E-0.12397
G1 X107.262 Y101.590 E-0.29912
G1 X107.799 Y101.590 E-0.12397
G1 X106.406 Y100.197 E-0.45498
G1 X106.664 Y99.918 E-0.08772
G1 X106.851 Y100.105 E-0.06103
G1 E-0.07000 F2100.00000
G1 Z0.400 F10800.000
G1 X114.442 Y107.159
G1 Z0.200
G1 E1.40000 F2100.00000
G1 F1200
G1 X109.408 Y102.125 E0.22472
G1 X109.408 Y102.662 E0.01695
G1 X114.272 Y107.526 E0.21715
G1 X114.272 Y108.063 E0.01695
G1 X109.408 Y103.199 E0.21715
M73 Q0 S150
G1 X109.408 Y103.736 E0.01695
G1 X116.316 Y110.644 E0.30838
M73 P0 R148
G1 X116.594 Y110.386 E0.01199
G1 X114.619 Y108.410 E0.08820
G1 X115.156 Y108.410 E0.01695
G1 X116.873 Y110.127 E0.07667
G1 X117.152 Y109.869 E0.01199
G1 X115.692 Y108.410 E0.06514
G1 X116.229 Y108.410 E0.01695
G1 X117.334 Y109.514 E0.04931
G1 X117.334 Y108.978 E0.01695
G1 X116.766 Y108.410 E0.02534
G1 X117.303 Y108.410 E0.01695
G1 X117.504 Y108.610 E0.00895
G1 F8640
G1 X117.303 Y108.410 E-0.06547
G1 X116.766 Y108.410 E-0.12397
G1 X117.334 Y108.978 E-0.18537
G1 X117.334 Y109.514 E-0.12397
G1 X116.229 Y108.410 E-0.36069
G1 X115.692 Y108.410 E-0.12397
G1 X116.754 Y109.471 E-0.34657
G1 E-0.07000 F2100.00000
G1 Z0.400 F10800.000
G1 X116.220 Y111.085
G1 Z0.200
G1 E1.40000 F2100.00000
G1 F1200
G1 X109.408 Y104.273 E0.30410
G1 X109.408 Y104.810 E0.01695
G1 X116.050 Y111.452 E0.29652
G1 X116.050 Y111.989 E0.01695
G1 X109.408 Y105.347 E0.29652
G1 X109.408 Y105.883 E0.01695
G1 X116.050 Y112.526 E0.29652
G1 X116.050 Y113.063 E0.01695
G1 X109.408 Y106.420 E0.29652
G1 X109.408 Y106.957 E0.01695
G1 X116.050 Y113.599 E0.29652
G1 X116.050 Y114.136 E0.01695
G1 X109.408 Y107.494 E0.29652
G1 X109.408 Y108.031 E0.01695
G1 X116.050 Y114.673 E0.29652
G1 X116.050 Y115.210 E0.01695
G1 X109.250 Y108.410 E0.30357
G1 X108.713 Y108.410 E0.01695
G1 X116.050 Y115.747 E0.32754
G1 X116.050 Y116.284 E0.01695
G1 X108.176 Y108.410 E0.35151
G1 X107.639 Y108.410 E0.01695
G1 X116.050 Y116.821 E0.37548
G1 X116.050 Y117.358 E0.01695
G1 X107.102 Y108.410 E0.39944
G1 X106.565 Y108.410 E0.01695
G1 X116.050 Y117.895 E0.42341
G1 X116.050 Y118.431 E0.01695
G1 X106.346 Y108.727 E0.43321
G1 X106.346 Y109.264 E0.01695
G1 X116.050 Y118.968 E0.43321
G1 X116.050 Y119.505 E0.01695
G1 X107.630 Y111.085 E0.37590
G1 X107.630 Y111.622 E0.01695
G1 X116.050 Y120.042 E0.37590
G1 X116.050 Y120.579 E0.01695
G1 X107.630 Y112.159 E0.37590
G1 X107.630 Y112.696 E0.01695
G1 X115.574 Y120.640 E0.35466
G1 X115.038 Y120.640 E0.01695
G1 X107.630 Y113.232 E0.33069
G1 X107.630 Y113.769 E0.01695
G1 X114.501 Y120.640 E0.30673
G1 X113.964 Y120.640 E0.01695
G1 X107.630 Y114.306 E0.28276
G1 X107.630 Y114.843 E0.01695
G1 X113.427 Y120.640 E0.25879
G1 X112.890 Y120.640 E0.01695
G1 X107.630 Y115.380 E0.23483
G1 X107.630 Y115.917 E0.01695
G1 X112.353 Y120.640 E0.21086
G1 X111.816 Y120.640 E0.01695
G1 X107.630 Y116.454 E0.18689
G1 X107.630 Y116.991 E0.01695
G1 X111.279 Y120.640 E0.16292
G1 X110.743 Y120.640 E0.01695
G1 X107.630 Y117.527 E0.13896
G1 X107.630 Y118.064 E0.01695
G1 X110.206 Y120.640 E0.11499
G1 X109.669 Y120.640 E0.01695
G1 X107.630 Y118.601 E0.09102
G1 X107.630 Y119.138 E0.01695
G1 X109.132 Y120.640 E0.06705
G1 X108.595 Y120.640 E0.01695
G1 X107.630 Y119.675 E0.04309
G1 X107.630 Y120.212 E0.01695
G1 X108.228 Y120.810 E0.02669
G1 F8640
G1 X107.630 Y120.212 E-0.19526
G1 X107.630 Y119.675 E-0.12397
G1 X108.595 Y120.640 E-0.31517
G1 X109.132 Y120.640 E-0.12397
G1 X107.630 Y119.138 E-0.49048
G1 X107.630 Y118.787 E-0.08115
G1 E-0.07000 F2100.00000
G1 Z0.400 F10800.000
G1 X107.536 Y89.442
G1 Z0.200
G1 E1.40000 F2100.00000
G1 F1200
G1 X102.456 Y89.442 E0.14943
G1 F8640
G1 X107.536 Y89.442 E-1.17298
G1 E-0.22702 F2100.00000
G1 Z0.400 F10800.000
G1 X116.144 Y89.442
G1 Z0.200
G1 E1.40000 F2100.00000
G1 F1200
G1 X121.224 Y89.442 E0.14943
G1 F8640
G1 X116.144 Y89.442 E-1.17298
G1 E-0.22702 F2100.00000
G1 Z0.400 F10800.000
G1 X132.493 Y101.873
G1 Z0.200
G1 E1.40000 F2100.00000
G1 F1200
G1 X135.445 Y101.873 E0.09256
G1 X135.445 Y108.127 E0.19609
G1 X132.493 Y108.127 E0.09256
G1 X132.493 Y101.933 E0.19421
G1 X132.870 Y102.250 F10800.000
G1 F1200
G1 X135.068 Y102.250 E0.06892
G1 X135.068 Y107.750 E0.17245
G1 X132.870 Y107.750 E0.06892
G1 X132.870 Y102.310 E0.17057
G1 X132.819 Y101.853 F10800.000
G1 F8640
G1 X135.068 Y102.250 E-0.50771
G1 X135.068 Y105.811 E-0.82229
G1 E-0.07000 F2100.00000
G1 Z0.400 F10800.000
G1 X140.875 Y101.873
G1 Z0.200
G1 E1.40000 F2100.00000
G1 F1200
G1 X143.827 Y101.873 E0.09256
G1 X143.827 Y108.127 E0.19609
G1 X140.875 Y108.127 E0.09256
G1 X140.875 Y101.933 E0.19421
G1 X141.252 Y102.250 F10800.000
G1 F1200
G1 X143.450 Y102.250 E0.06892
G1 X143.450 Y107.750 E0.17245
G1 X141.252 Y107.750 E0.06892
G1 X141.252 Y102.310 E0.17057
G1 X141.201 Y101.853 F10800.000
G1 F8640
G1 X143.450 Y102.250 E-0.50771
G1 X143.450 Y105.811 E-0.82229
G1 E-0.07000 F2100.00000
G1 Z0.400 F10800.000
G1 X142.653 Y89.808
G1 Z0.200
G1 E1.40000 F2100.00000
G1 F1200
G1 X142.653 Y98.765 E0.28084
G1 X143.937 Y100.150 E0.05922
G1 X143.937 Y109.824 E0.30330
G1 X142.653 Y111.013 E0.05488
G1 X142.653 Y120.923 E0.31071
G1 X133.667 Y120.923 E0.28174
G1 X133.667 Y111.013 E0.31071
G1 X132.383 Y109.824 E0.05488
G1 X132.383 Y100.150 E0.30330
G1 X133.667 Y98.765 E0.05922
G1 X133.667 Y89.808 E0.28084
G1 X128.587 Y89.808 E0.15928
G1 X128.587 Y89.077 E0.02292
G1 X147.733 Y89.077 E0.60030
G1 X147.733 Y89.808 E0.02292
G1 X142.713 Y89.808 E0.15740
G1 X143.030 Y90.185 F10800.000
G1 F1200
G1 X143.030 Y98.617 E0.26438
G1 X144.314 Y100.002 E0.05922
G1 X144.314 Y109.988 E0.31310
G1 X143.030 Y111.178 E0.05488
G1 X143.030 Y121.300 E0.31737
G1 X133.290 Y121.300 E0.30539
G1 X133.290 Y111.178 E0.31737
G1 X132.006 Y109.988 E0.05488
G1 X132.006 Y100.002 E0.31310
G1 X133.290 Y98.617 E0.05922
G1 X133.290 Y90.185 E0.26438
G1 X128.210 Y90.185 E0.15928
G1 X128.210 Y88.700 E0.04656
G1 X148.110 Y88.700 E0.62395
G1 X148.110 Y90.185 E0.04656
G1 X143.090 Y90.185 E0.15740
G1 X142.632 Y90.223 F10800.000
G1 X142.540 Y90.146
G1 F1200
G1 X141.753 Y89.360 E0.03511
G1 X141.216 Y89.360 E0.01695
G1 X142.370 Y90.514 E0.05150
G1 X142.370 Y91.050 E0.01695
G1 X140.680 Y89.360 E0.07547
G1 X140.143 Y89.360 E0.01695
G1 X142.370 Y91.587 E0.09944
G1 X142.370 Y92.124 E0.01695
G1 X139.606 Y89.360 E0.12341
G1 X139.069 Y89.360 E0.01695
G1 X142.370 Y92.661 E0.14737
G1 X142.370 Y93.198 E0.01695
G1 X138.532 Y89.360 E0.17134
G1 X137.995 Y89.360 E0.01695
G1 X142.370 Y93.735 E0.19531
G1 X142.370 Y94.272 E0.01695
G1 X137.458 Y89.360 E0.21928
G1 X136.921 Y89.360 E0.01695
G1 X142.370 Y94.809 E0.24324
G1 X142.370 Y95.346 E0.01695
G1 X136.384 Y89.360 E0.26721
G1 X135.848 Y89.360 E0.01695
G1 X142.370 Y95.882 E0.29118
G1 X142.370 Y96.419 E0.01695
G1 X135.311 Y89.360 E0.31514
G1 X134.774 Y89.360 E0.01695
G1 X142.370 Y96.956 E0.33911
G1 X142.370 Y97.493 E0.01695
G1 X134.237 Y89.360 E0.36308
G1 X134.138 Y89.360 E0.00311
G1 X134.138 Y89.798 E0.01384
G1 X142.370 Y98.030 E0.36748
G1 X142.370 Y98.567 E0.01695
G1 X133.950 Y90.147 E0.37590
G1 X133.950 Y90.683 E0.01695
G1 X143.654 Y100.387 E0.43321
G1 X143.654 Y100.924 E0.01695
G1 X133.950 Y91.220 E0.43321
G1 X133.950 Y91.757 E0.01695
G1 X143.654 Y101.461 E0.43321
G1 X143.654 Y101.590 E0.00407
G1 X143.246 Y101.590 E0.01288
G1 X133.950 Y92.294 E0.41499
G1 X133.950 Y92.831 E0.01695
G1 X142.709 Y101.590 E0.39103
G1 X142.172 Y101.590 E0.01695
G1 X133.950 Y93.368 E0.36706
G1 X133.950 Y93.905 E0.01695
G1 X141.635 Y101.590 E0.34309
G1 X141.098 Y101.590 E0.01695
G1 X133.950 Y94.442 E0.31912
G1 X133.950 Y94.978 E0.01695
G1 X140.592 Y101.621 E0.29652
G1 X140.592 Y102.158 E0.01695
G1 X133.950 Y95.515 E0.29652
G1 X133.950 Y96.052 E0.01695
G1 X140.592 Y102.694 E0.29652
G1 X140.592 Y103.231 E0.01695
G1 X133.950 Y96.589 E0.29652
G1 X133.950 Y97.126 E0.01695
G1 X140.592 Y103.768 E0.29652
G1 X140.592 Y104.305 E0.01695
G1 X133.950 Y97.663 E0.29652
G1 X133.950 Y98.200 E0.01695
G1 X140.592 Y104.842 E0.29652
G1 X140.592 Y105.379 E0.01695
G1 X133.950 Y98.737 E0.29652
G1 X133.950 Y98.876 E0.00439
G1 X133.759 Y99.082 E0.00888
G1 X140.592 Y105.916 E0.30506
G1 X140.592 Y106.453 E0.01695
G1 X133.500 Y99.361 E0.31659
G1 X133.242 Y99.640 E0.01199
G1 X135.193 Y101.590 E0.08708
G1 X134.656 Y101.590 E0.01695
G1 X132.984 Y99.918 E0.07464
G1 X132.726 Y100.197 E0.01199
G1 X134.119 Y101.590 E0.06220
G1 X133.582 Y101.590 E0.01695
G1 X132.666 Y100.674 E0.04089
G1 X132.666 Y101.211 E0.01695
G1 X133.215 Y101.760 E0.02450
G1 F8640
G1 X132.666 Y101.211 E-0.17921
G1 X132.666 Y100.674 E-0.12397
G1 X133.582 Y101.590 E-0.29912
G1 X134.119 Y101.590 E-0.12397
G1 X132.726 Y100.197 E-0.45498
G1 X132.984 Y99.918 E-0.08772
G1 X133.171 Y100.105 E-0.06103
G1 E-0.07000 F2100.00000
G1 Z0.400 F10800.000
G1 X140.762 Y107.159
G1 Z0.200
G1 E1.40000 F2100.00000
G1 F1200
G1 X135.728 Y102.125 E0.22472
G1 X135.728 Y102.662 E0.01695
G1 X140.592 Y107.526 E0.21715
G1 X140.592 Y108.063 E0.01695
G1 X135.728 Y103.199 E0.21715
G1 X135.728 Y103.736 E0.01695
G1 X142.636 Y110.644 E0.30838
G1 X142.914 Y110.386 E0.01199
G1 X140.939 Y108.410 E0.08820
